!! 00000] TT[WS
!!!OTL: Xiu hebao
!!!ARE: Asia, China, Shanxi Linxian
!! Ethnic Group: Han
!! WII, 55 (2)
!!!SCT: J0476
!!!YEM: Copyright 1995, estate of Helmut Schaffrath.
**kern
*ICvox
*Ivox
*M2/4
*k[f#]
*G:
{8a
8a
8a
8dd
=1
4a
8g
8e
=2
8dd
8cc
8a
8a
=3
4d
8c
8A}
=4
{8a
8g
8a
8dd
=5
8a
8g
8d
8e
=6
8e
8a
8d
8c
=7
2A}
==
!!!AGN: Xiaodiao. Qingge, Sichun
!!!ONB: ESAC (Essen Associative Code) Database: CHINA
!!!AMT: simple duple
!!!AIN: vox
!!!EED: Helmut Schaffrath
!!!EEV: 1.0
*-
